img/logos/verizon.svg

<?xml version="1.0" encoding="UTF-8" standalone="no"?>
<svg width="161px" height="36px" viewBox="0 0 161 36" version="1.1" xmlns="http://www.w3.org/2000/svg" xmlns:xlink="http://www.w3.org/1999/xlink">
    <!-- Generator: Sketch 45 (43475) - http://www.bohemiancoding.com/sketch -->
    <title>verizon-2015</title>
    <desc>Created with Sketch.</desc>
    <defs></defs>
    <g id="Page-1" stroke="none" stroke-width="1" fill="none" fill-rule="evenodd" opacity="0.597423041">
        <g id="Envoy-R2" transform="translate(-1006.000000, -1013.000000)" fill-rule="nonzero" fill="#222222">
            <g id="Group-22" transform="translate(298.000000, 1005.000000)">
                <g id="verizon-2015" transform="translate(708.000000, 8.000000)">
                    <path d="M157.00746,0.0654545455 C158.240927,8.34401992e-16 159.474395,8.34401992e-16 160.707863,0.0327272727 C157.00746,7.82181818 153.436895,15.6763636 149.833871,23.4981818 L146.815121,23.4981818 C145.159677,19.5709091 143.212097,15.7418182 141.491734,11.8145455 C142.692742,11.7818182 143.89375,11.7818182 145.094758,11.8145455 C146.133468,14.2363636 147.366935,16.56 148.308266,18.9818182 C151.197177,12.6654545 154.183468,6.38181818 157.00746,0.0654545455 Z" id="Shape"></path>
                    <path d="M64.0754032,3.40363636 C66.4449597,3.43636364 68.8469758,3.43636364 71.2165323,3.40363636 C71.1840726,5.53090909 71.1840726,7.69090909 71.2165323,9.81818182 C68.8469758,9.78545455 66.4449597,9.81818182 64.0429435,9.78545455 C64.1078629,7.65818182 64.0429435,5.53090909 64.0754032,3.40363636 L64.0754032,3.40363636 Z M28.1425403,12.5672727 C33.0114919,9.78545455 40.0877016,10.7345455 43.366129,15.5454545 C45.378629,18.3927273 45.9629032,21.9927273 45.9304435,25.3963636 C40.347379,25.4290909 34.7643145,25.3963636 29.18125,25.4290909 C29.4409274,27.1636364 30.1875,28.9963636 31.7780242,29.9127273 C34.0502016,31.2545455 37.6207661,30.8618182 38.7568548,28.2109091 C41.0614919,28.1454545 43.3336694,28.1454545 45.6383065,28.2109091 C44.9241935,30.8618182 43.0090726,33.12 40.6070565,34.3636364 C38.0102823,35.8036364 34.8941532,36.0654545 32.0052419,35.5745455 C28.9540323,35.0836364 26.1300403,33.3490909 24.4096774,30.7636364 C22.5270161,28.0145455 22.040121,24.5127273 22.4620968,21.2727273 C22.8840726,17.7054545 24.9939516,14.3345455 28.1425403,12.5672727 L28.1425403,12.5672727 Z M31.9403226,16.6581818 C30.3497984,17.4109091 29.5707661,19.1454545 29.2137097,20.8145455 L38.7568548,20.8145455 C38.5620968,19.5381818 38.1076613,18.1963636 37.133871,17.3127273 C35.7705645,15.9709091 33.5957661,15.9381818 31.9403226,16.6581818 L31.9403226,16.6581818 Z M102.994556,11.3236364 C106.824798,10.6363636 111.077016,11.4545455 114.030847,14.1381818 C119.062097,18.6545455 119.289315,27.3927273 114.615121,32.2363636 C110.914718,36.1309091 104.714919,36.8509091 99.9758065,34.6581818 C96.3078629,32.9890909 93.8084677,29.2254545 93.3864919,25.2327273 C93.2241935,22.9090909 93.3215726,20.52 94.2629032,18.36 C95.691129,14.6618182 99.1643145,11.9781818 102.994556,11.3236364 L102.994556,11.3236364 Z M103.806048,16.6581818 C101.793548,17.3781818 100.852218,19.5709091 100.560081,21.5672727 C100.332863,24.0545455 100.365323,26.8690909 101.955847,28.9309091 C103.67621,31.1890909 107.473992,31.1236364 109.194355,28.8981818 C110.622581,27.0981818 110.849798,24.6436364 110.6875,22.4181818 C110.590121,20.4545455 109.908468,18.36 108.285484,17.1490909 C106.987097,16.2654545 105.266734,16.1345455 103.806048,16.6581818 L103.806048,16.6581818 Z M128.475403,12.6654545 C130.84496,10.8 134.220766,10.6036364 136.947379,11.7163636 C138.89496,12.5672727 140.355645,14.3018182 141.037298,16.2981818 C141.816331,18.36 141.589113,20.5854545 141.589113,22.7454545 C141.589113,26.8690909 141.556653,30.9927273 141.621573,35.0836364 C139.252016,35.1163636 136.88246,35.0836364 134.480444,35.1163636 L134.480444,20.9781818 C134.480444,19.7672727 134.026008,18.4581818 133.019758,17.7054545 C131.494153,16.6581818 129.286895,16.8545455 127.988508,18.1636364 C126.949798,19.2109091 126.495363,20.7163636 126.527823,22.1563636 L126.527823,35.1163636 C124.190726,35.0836364 121.821169,35.1163636 119.484073,35.0836364 C119.484073,27.2945455 119.516532,19.5054545 119.484073,11.7163636 C121.78871,11.7490909 124.060887,11.6836364 126.365524,11.7490909 C126.333065,12.8290909 126.333065,13.9090909 126.300605,14.9890909 C127.014718,14.2036364 127.598992,13.32 128.475403,12.6654545 L128.475403,12.6654545 Z M0,11.7818182 L7.40080645,11.7818182 C8.89395161,16.7890909 10.4844758,21.7963636 11.8802419,26.8363636 C13.6006048,21.8945455 14.8989919,16.7890909 16.5219758,11.7818182 C18.8915323,11.7490909 21.2935484,11.7818182 23.6631048,11.7490909 C20.9364919,19.5381818 18.2747984,27.3272727 15.5806452,35.1163636 C13.1137097,35.1163636 10.6467742,35.0836364 8.17983871,35.1490909 C5.35584677,27.3927273 2.85645161,19.5054545 0,11.7818182 Z M47.5534274,11.7490909 L54.3699597,11.7490909 C54.3375,13.0581818 54.3699597,14.3672727 54.3050403,15.6763636 C54.8893145,15.0218182 55.3112903,14.2036364 55.9280242,13.5818182 C57.453629,11.88 59.9530242,11.1927273 62.1602823,11.7818182 C62.1278226,13.8436364 62.1278226,15.9054545 62.1602823,17.9345455 C60.4074597,17.7381818 58.459879,17.8036364 56.9667339,18.8836364 C55.3762097,19.9963636 54.6620968,22.0581818 54.6945565,23.9563636 C54.6620968,27.6872727 54.6945565,31.3854545 54.6945565,35.1163636 C52.325,35.1163636 49.9229839,35.0836364 47.5534274,35.1490909 C47.5858871,27.3272727 47.5858871,19.5381818 47.5534274,11.7490909 L47.5534274,11.7490909 Z M64.0754032,11.7818182 C66.4774194,11.7490909 68.8469758,11.7818182 71.2489919,11.7490909 C71.2165323,19.5381818 71.2489919,27.3272727 71.2489919,35.1163636 C68.8794355,35.0836364 66.4774194,35.1163636 64.0754032,35.1163636 L64.0754032,11.7818182 Z M73.1641129,11.7490909 C79.6235887,11.7818182 86.0830645,11.7490909 92.5100806,11.7818182 C92.4451613,13.5818182 92.5100806,15.3490909 92.477621,17.1490909 C92.2504032,17.6072727 91.8608871,17.9345455 91.56875,18.3272727 C88.2578629,22.0254545 85.0118952,25.8218182 81.6360887,29.4872727 C85.433871,29.5527273 89.2316532,29.4872727 93.0294355,29.52 L93.0294355,35.1490909 C86.4076613,35.1163636 79.7858871,35.1163636 73.1641129,35.1490909 L73.1641129,29.7163636 C76.6372984,25.7890909 80.0780242,21.8945455 83.5836694,18 C83.6810484,17.8036364 84.1030242,17.6072727 83.8758065,17.3454545 C80.3052419,17.4436364 76.7346774,17.3454545 73.1641129,17.4109091 L73.1641129,11.7490909 L73.1641129,11.7490909 Z" id="Shape"></path>
                </g>
            </g>
        </g>
    </g>
</svg>

<svg width="161" height="36" xmlns="http://www.w3.org/2000/svg"><g fill="#222" fill-rule="nonzero" opacity=".597"><path d="M157.01.065a46.512 46.512 0 0 1 3.7-.032c-3.7 7.789-7.27 15.644-10.874 23.465h-3.018c-1.656-3.928-3.603-7.757-5.324-11.684a66.123 66.123 0 0 1 3.603 0c1.039 2.422 2.272 4.745 3.214 7.167 2.889-6.316 5.875-12.6 8.699-18.916zM64.075 3.404c2.37.032 4.772.032 7.141 0a211.276 211.276 0 0 0 0 6.414c-2.37-.033-4.771 0-7.173-.033.064-2.127 0-4.254.032-6.381zm-35.933 9.163c4.869-2.782 11.945-1.833 15.224 2.978 2.013 2.848 2.597 6.448 2.564 9.851-5.583.033-11.166 0-16.749.033.26 1.735 1.007 3.567 2.597 4.484 2.272 1.341 5.843.949 6.979-1.702 2.305-.066 4.577-.066 6.881 0-.714 2.65-2.629 4.909-5.03 6.153-2.598 1.44-5.714 1.701-8.603 1.21-3.05-.49-5.875-2.225-7.595-4.81-1.883-2.75-2.37-6.251-1.948-9.491.422-3.568 2.532-6.939 5.68-8.706zm3.798 4.091c-1.59.753-2.37 2.487-2.727 4.156h9.543c-.194-1.276-.649-2.618-1.623-3.501-1.363-1.342-3.538-1.375-5.193-.655zm71.054-5.334c3.83-.688 8.082.13 11.036 2.814 5.031 4.517 5.258 13.255.584 18.098-3.7 3.895-9.9 4.615-14.639 2.422-3.668-1.67-6.167-5.433-6.59-9.426-.162-2.323-.064-4.712.877-6.872 1.428-3.699 4.902-6.382 8.732-7.037zm.811 5.334c-2.012.72-2.954 2.913-3.246 4.91-.227 2.486-.194 5.301 1.396 7.363 1.72 2.258 5.518 2.192 7.239-.033 1.428-1.8 1.655-4.254 1.493-6.48-.098-1.964-.78-4.058-2.402-5.269-1.299-.884-3.02-1.015-4.48-.49zm24.67-3.993c2.369-1.865 5.745-2.061 8.471-.949 1.948.851 3.409 2.586 4.09 4.582.78 2.062.552 4.287.552 6.447 0 4.124-.032 8.248.032 12.338-2.37.033-4.739 0-7.14.033V20.978c0-1.21-.455-2.52-1.461-3.273-1.526-1.047-3.733-.85-5.032.459-1.038 1.047-1.493 2.552-1.46 3.992v12.96c-2.337-.032-4.707 0-7.044-.032 0-7.79.032-15.578 0-23.367 2.305.032 4.577-.033 6.881.032-.032 1.08-.032 2.16-.064 3.24.714-.785 1.298-1.669 2.174-2.323zm-128.48-.883h7.4c1.493 5.007 3.084 10.015 4.48 15.055 1.72-4.942 3.018-10.047 4.641-15.055 2.37-.033 4.772 0 7.141-.033-2.726 7.79-5.388 15.578-8.082 23.367-2.467 0-4.934-.033-7.401.033-2.824-7.757-5.323-15.644-8.18-23.367zm47.552-.033h6.817c-.033 1.31 0 2.618-.065 3.927.584-.654 1.006-1.472 1.623-2.094 1.525-1.702 4.025-2.39 6.232-1.8a194.38 194.38 0 0 0 0 6.153c-1.753-.197-3.7-.131-5.193.949-1.59 1.112-2.305 3.174-2.273 5.072-.032 3.731 0 7.43 0 11.16-2.37 0-4.771-.032-7.14.033.032-7.822.032-15.61 0-23.4zm16.522.033c2.402-.033 4.772 0 7.174-.033-.033 7.79 0 15.578 0 23.367-2.37-.033-4.772 0-7.174 0V11.781zm9.089-.033c6.46.033 12.919 0 19.346.033-.065 1.8 0 3.567-.032 5.367-.228.458-.617.786-.91 1.178-3.31 3.698-6.556 7.495-9.932 11.16 3.798.066 7.596 0 11.393.033v5.63c-6.622-.034-13.244-.034-19.865 0v-5.434c3.473-3.927 6.914-7.821 10.42-11.716.097-.196.52-.392.292-.654-3.57.098-7.141 0-10.712.065V11.75z"/></g></svg>
